X: 038
M: 2/4
L: 1/8
K: F
|:\
|:\
c2BA | d3 B | AGFE | F/E/F/G/ F2F2 |\
c2BA | d3 B | AGFE | F2F2 :|

